X: 30762
T: Orphan, The
R: jig
M: 6/8
K: Eminor
|:~E3 EDB,|GFG AGA|B2 G ABA|GEF EDB,|
~A,3 EDB,|GFG AGA|B2 G ABA|GED E3:|
|:efe ded|BAB ~d3|edB AGA|BGE ~D3|
~E3 EDB,|GFG AGA|B2 G ABA|GED E3:|

